src/assets/icons/icons/svgmap/instagram-ds.svg

<?xml version="1.0" encoding="UTF-8"?>
<svg width="320px" height="320px" viewBox="0 0 320 320" version="1.1" xmlns="http://www.w3.org/2000/svg" xmlns:xlink="http://www.w3.org/1999/xlink">
    <title>Instagram@1x</title>
    <defs>
        <polygon id="path-1" points="0 0 278 0 278 278 0 278"></polygon>
    </defs>
    <g id="Instagram" stroke="none" stroke-width="1" fill="none" fill-rule="evenodd">
        <g id="Group-8" transform="translate(21, 21)">
            <g id="Group-3">
                <mask id="mask-2" fill="white">
                    <use xlink:href="#path-1"></use>
                </mask>
                <g id="Clip-2"></g>
                <path d="M138.999862,0 C101.249967,0 96.5158498,0.160010829 81.6905588,0.836470402 C66.895063,1.51127469 56.7911988,3.86122683 47.9492141,7.29759732 C38.8092779,10.849286 31.057023,15.6021593 23.3295974,23.3295788 C15.60162,31.0575501 10.8492946,38.8092471 7.29705135,47.949176 C3.86067813,56.7911537 1.51127589,66.8950099 0.835919304,81.690494 C0.159459194,96.5163249 0,101.249335 0,138.999752 C0,176.750169 0.159459194,181.48373 0.835919304,196.309561 C1.51127589,211.104494 3.86067813,221.208901 7.29705135,230.050327 C10.8492946,239.190256 15.60162,246.942505 23.3295974,254.669925 C31.057023,262.397896 38.8092779,267.150217 47.9492141,270.70301 C56.7911988,274.138828 66.895063,276.48878 81.6905588,277.164137 C96.5158498,277.840044 101.249967,278.000055 138.999862,278.000055 C176.750309,278.000055 181.483323,277.840044 196.309165,277.164137 C211.104661,276.48878 221.208525,274.138828 230.05051,270.70301 C239.190998,267.150217 246.942701,262.397896 254.670127,254.669925 C262.398104,246.942505 267.15043,239.190808 270.702673,230.050327 C274.139046,221.208901 276.489,211.104494 277.163805,196.309561 C277.840265,181.48373 278.000276,176.750169 278.000276,138.999752 C278.000276,101.249887 277.840265,96.5163249 277.163805,81.690494 C276.489,66.8950099 274.139046,56.7911537 270.702673,47.949176 C267.15043,38.8092471 262.398104,31.0575501 254.670127,23.3295788 C246.942701,15.6021593 239.190998,10.849286 230.05051,7.29759732 C221.208525,3.86122683 211.104661,1.51127469 196.309165,0.836470402 C181.483323,0.160010829 176.750309,0 138.999862,0 M138.999862,25.0450053 C176.114679,25.0450053 180.510566,25.1862562 195.16757,25.8549911 C208.719946,26.4735157 216.079898,28.7379449 220.977889,30.641522 C227.466057,33.1630719 232.096995,36.1751378 236.960776,41.0389153 C241.824558,45.9032445 244.836626,50.5336268 247.35873,57.02179 C249.261756,61.9197767 251.526187,69.279723 252.144712,82.8320885 C252.812896,97.4890804 252.954699,101.885516 252.954699,138.999752 C252.954699,176.114539 252.812896,180.510975 252.144712,195.167415 C251.526187,208.720332 249.261756,216.080279 247.35873,220.978265 C244.836626,227.465877 241.824558,232.096811 236.960776,236.960588 C232.096995,241.824917 227.466057,244.836983 220.977889,247.358533 C216.079898,249.261559 208.719946,251.526539 195.16757,252.144512 C180.512773,252.813247 176.117438,252.95505 138.999862,252.95505 C101.882286,252.95505 97.4869507,252.813247 82.8321542,252.144512 C69.279778,251.526539 61.9192741,249.261559 57.0212835,247.358533 C50.5336669,244.836983 45.9027291,241.824917 41.0389478,236.960588 C36.1751665,232.096811 33.1625465,227.465877 30.6409945,220.978265 C28.7379677,216.080279 26.4735368,208.720332 25.8550117,195.167967 C25.1862762,180.510975 25.0450252,176.114539 25.0450252,138.999752 C25.0450252,101.885516 25.1862762,97.4890804 25.8550117,82.8320885 C26.4735368,69.279723 28.7379677,61.9197767 30.6409945,57.02179 C33.1625465,50.5336268 36.1751665,45.9032445 41.0389478,41.039467 C45.9027291,36.1751378 50.5336669,33.1630719 57.0212835,30.641522 C61.9192741,28.7379449 69.279778,26.4735157 82.8316025,25.8549911 C97.4891578,25.1862562 101.885045,25.0450053 138.999862,25.0450053" id="Fill-1" fill="#000000" mask="url(#mask-2)"></path>
            </g>
            <path d="M138.999862,185.33337 C113.4108,185.33337 92.6662069,164.588794 92.6662069,138.999752 C92.6662069,113.41071 113.4108,92.6666851 138.999862,92.6666851 C164.588924,92.6666851 185.333517,113.41071 185.333517,138.999752 C185.333517,164.588794 164.588924,185.33337 138.999862,185.33337 M138.999862,67.6216798 C99.5786802,67.6216798 67.6211817,99.5786011 67.6211817,138.999752 C67.6211817,178.421454 99.5786802,210.378375 138.999862,210.378375 C178.421044,210.378375 210.377991,178.421454 210.377991,138.999752 C210.377991,99.5786011 178.421044,67.6216798 138.999862,67.6216798" id="Fill-4" fill="#000000"></path>
            <path d="M229.878415,64.8015165 C229.878415,74.0137262 222.41087,81.481266 213.198653,81.481266 C203.986436,81.481266 196.518338,74.0137262 196.518338,64.8015165 C196.518338,55.5893069 203.986436,48.121767 213.198653,48.121767 C222.41087,48.121767 229.878415,55.5893069 229.878415,64.8015165" id="Fill-6" fill="#000000"></path>
        </g>
    </g>
</svg>

<?xml version="1.0" encoding="UTF-8"?>
<svg id="Instagram" xmlns="http://www.w3.org/2000/svg" xmlns:xlink="http://www.w3.org/1999/xlink" viewBox="0 0 278 278">
  <defs>
    <style>
      .cls-1 {
        mask: url(#mask);
      }

      .cls-2 {
        fill: #fff;
      }

      .cls-2, .cls-3 {
        fill-rule: evenodd;
      }
    </style>
    <mask id="mask" x="0" y="0" width="278" height="278" maskUnits="userSpaceOnUse">
      <g id="mask-2">
        <polygon id="path-1" class="cls-2" points="0 0 278 0 278 278 0 278 0 0"/>
      </g>
    </mask>
  </defs>
  <g id="Instagram-2" data-name="Instagram">
    <g id="Group-3">
      <g class="cls-1">
        <path id="Fill-1" class="cls-3" d="m139,0c-37.75,0-42.48.16-57.31.84-14.8.67-24.9,3.02-33.74,6.46-9.14,3.55-16.89,8.3-24.62,16.03-7.73,7.73-12.48,15.48-16.03,24.62-3.44,8.84-5.79,18.95-6.46,33.74-.68,14.83-.84,19.56-.84,57.31s.16,42.48.84,57.31c.68,14.79,3.02,24.9,6.46,33.74,3.55,9.14,8.3,16.89,16.03,24.62,7.73,7.73,15.48,12.48,24.62,16.03,8.84,3.44,18.95,5.79,33.74,6.46,14.83.68,19.56.84,57.31.84s42.48-.16,57.31-.84c14.8-.68,24.9-3.03,33.74-6.46,9.14-3.55,16.89-8.31,24.62-16.03,7.73-7.73,12.48-15.48,16.03-24.62,3.44-8.84,5.79-18.95,6.46-33.74.68-14.83.84-19.56.84-57.31s-.16-42.48-.84-57.31c-.67-14.8-3.02-24.9-6.46-33.74-3.55-9.14-8.3-16.89-16.03-24.62-7.73-7.73-15.48-12.48-24.62-16.03-8.84-3.44-18.95-5.79-33.74-6.46-14.83-.68-19.56-.84-57.31-.84m0,25.05c37.11,0,41.51.14,56.17.81,13.55.62,20.91,2.88,25.81,4.79,6.49,2.52,11.12,5.53,15.98,10.4,4.86,4.86,7.88,9.49,10.4,15.98,1.9,4.9,4.17,12.26,4.79,25.81.67,14.66.81,19.05.81,56.17s-.14,41.51-.81,56.17c-.62,13.55-2.88,20.91-4.79,25.81-2.52,6.49-5.53,11.12-10.4,15.98-4.86,4.86-9.49,7.88-15.98,10.4-4.9,1.9-12.26,4.17-25.81,4.79-14.65.67-19.05.81-56.17.81s-41.51-.14-56.17-.81c-13.55-.62-20.91-2.88-25.81-4.79-6.49-2.52-11.12-5.53-15.98-10.4-4.86-4.86-7.88-9.49-10.4-15.98-1.9-4.9-4.17-12.26-4.79-25.81-.67-14.66-.81-19.05-.81-56.17s.14-41.51.81-56.17c.62-13.55,2.88-20.91,4.79-25.81,2.52-6.49,5.53-11.12,10.4-15.98,4.86-4.86,9.49-7.88,15.98-10.4,4.9-1.9,12.26-4.17,25.81-4.79,14.66-.67,19.05-.81,56.17-.81"/>
      </g>
    </g>
    <path id="Fill-4" class="cls-3" d="m139,185.33c-25.59,0-46.33-20.74-46.33-46.33s20.74-46.33,46.33-46.33,46.33,20.74,46.33,46.33-20.74,46.33-46.33,46.33m0-117.71c-39.42,0-71.38,31.96-71.38,71.38s31.96,71.38,71.38,71.38,71.38-31.96,71.38-71.38-31.96-71.38-71.38-71.38"/>
    <path id="Fill-6" class="cls-3" d="m229.88,64.8c0,9.21-7.47,16.68-16.68,16.68s-16.68-7.47-16.68-16.68,7.47-16.68,16.68-16.68,16.68,7.47,16.68,16.68"/>
  </g>
</svg>
